X:173
M:6/8
L:1/8
K:Bb
|:F|Bdf fdB|ceg g2F|Bdf fdB|Acc c2F|Bdf fdB|cba b2e|dcB FBA|BFD B,2:|

